!! 00000] TT[00
!! NN
!!!OTL: Lan yu lian
!!!ARE: Asia, China,ˇQinghai, Osten, NÑhe v. Gansu)
!! Ethnic Group: Han
!! I, 248, 1)
!!!SCT: C0064
!!!YEM: Copyright 1995, estate of Helmut Schaffrath.
**kern
*ICvox
*Ivox
*M2/4
*k[]
*C:
{8d
16d
16g
4g
=1
16a
16cc
4dd
8ee
=2
4dd
8.dd
16ee
=3
8dd
16dd
16cc
8a
16g
16a}
=4
{8cc
16a
16cc
16dd
16ee
16dd
16cc
=5
16a
16cc
16a
16g
8d
8g
=6
4a
16cc
16dd
16cc
16a
=7
4g
4g}
==
!!!AGN: Xiaodiao. FunÅ ku
!! 
!!!ONB: ESAC (Essen Associative Code) Database: CHINA
!!!AMT: simple duple
!!!AIN: vox
!!!EED: Helmut Schaffrath
!!!EEV: 1.0
*-
